modules/framework7-icons/icons/social_github.svg

<?xml version="1.0" encoding="UTF-8"?>
<svg width="50px" height="50px" viewBox="0 0 50 50" version="1.1" xmlns="http://www.w3.org/2000/svg" xmlns:xlink="http://www.w3.org/1999/xlink">
    <!-- Generator: Sketch 40.1 (33804) - http://www.bohemiancoding.com/sketch -->
    <title>social_github</title>
    <desc>Created with Sketch.</desc>
    <defs></defs>
    <g id="Page-1" stroke="none" stroke-width="1" fill="none" fill-rule="evenodd">
        <g id="social_github" fill="#000000">
            <path d="M33.2287056,40.6596274 C33.2287056,42.1091226 33.2232761,43.4967719 33.213317,45.0466536 C33.2104343,45.4854032 33.2104343,45.4854032 33.2076739,45.8819654 C33.205035,46.2561894 33.205035,46.2561894 33.2027601,46.583163 C33.1994446,47.0673731 33.198011,47.3384288 33.198011,47.5168053 C33.198011,47.1582431 32.7194648,46.7213244 32.5388621,46.7560894 L32.9169097,48.7200344 L32.2836623,46.8229319 C41.5959467,43.7145179 48,34.9741245 48,25.0007674 C48,12.2976931 37.7014336,2 24.9976979,2 C12.2979114,2 2,12.2983481 2,25.0007674 C2,34.9784267 8.41122135,43.7234349 17.7283909,46.8238803 L17.0969029,48.7215691 L17.4589206,46.7546062 C17.2735482,46.7204885 16.8035237,47.1501489 16.8035237,47.5168053 C16.8035237,47.3384218 16.8015639,47.0640119 16.7970289,46.5729116 C16.7939092,46.2403784 16.7939092,46.2403784 16.7902881,45.8594758 C16.7864996,45.4557551 16.784864,45.2769944 16.7825423,45.0090163 C16.7781571,44.5028667 16.7744785,44.0229003 16.7714207,43.542764 C16.871382,43.5375577 16.9728206,43.5308349 17.0757566,43.5225397 L18.7815878,44.8894131 C18.7828022,45.0317376 18.7840205,45.1698576 18.7852266,45.3035261 C14.9342566,46.0387434 12.0015027,45.1437556 10.0571392,43.1211628 C9.15419634,42.181891 8.65563482,41.226095 8.43397236,40.4915483 L8.48774128,40.6464599 C8.28358887,40.1279514 8.05461973,39.6776428 7.80722758,39.289478 C7.49862653,38.8052747 7.18506907,38.4512506 6.89026377,38.2048692 C6.75629493,38.0929057 6.69191036,38.0525859 6.72297361,38.0671577 L6.57732842,37.9988354 L6.44447642,37.9081116 C5.19179951,37.0526662 4.51008395,36.250606 4.61436208,35.0137834 C4.68409515,34.186693 5.14926631,33.5755376 5.77075003,33.2047547 C6.09375163,33.012049 6.42508338,32.9009348 6.78276798,32.8293506 C7.1474072,32.7563746 7.47774575,32.7353302 7.75457541,32.7371201 C9.45067857,32.8521833 10.7878475,33.5302834 11.8893088,34.5582137 C12.5842665,35.2067775 13.0541972,35.8560691 13.3006367,36.305611 C14.4573995,38.2871544 16.0990342,38.4337248 18.0298173,37.5661207 L18.8495657,39.3904049 L16.8690687,39.1117798 C17.0559907,37.7831186 17.4904006,36.6163269 18.1219752,35.6826529 C18.8880343,35.844716 19.6650126,35.9616339 20.4364775,36.0492956 C19.9679862,36.4593513 19.5285966,37.0751028 19.2177384,37.9065364 C11.4672327,36.7521705 7.04877375,32.6706792 7.04877375,23.6931766 C7.04877375,20.5706501 8.1359578,17.8310591 10.1474563,15.6342402 L11.6225176,16.9848676 L9.77056563,17.7400324 C8.92030189,15.6548618 8.73317813,12.8559782 10.0083312,9.63287417 L10.3565111,8.75280728 L11.2578153,8.4640207 C11.3780383,8.4255001 11.5239821,8.39078105 11.6952777,8.3638845 C13.5556512,8.07177183 16.266078,8.83876753 19.8637837,11.2757738 L18.2052406,11.0050541 C20.344292,10.4089521 22.6565988,10.100898 25.0108828,10.0891014 C27.3426749,10.1008951 29.65337,10.4087907 31.7955281,11.0048408 L30.1372567,11.2761088 C33.7330245,8.83884876 36.4415771,8.07164159 38.3007096,8.36394779 C38.4720562,8.39088814 38.6180735,8.42567321 38.7383912,8.46428066 L39.638178,8.75300347 L39.9864967,9.63144036 C41.2641335,12.8535571 41.0789636,15.6441995 40.2310033,17.7361733 L38.3774824,16.9848676 L39.851253,15.632832 C41.8630227,17.825738 42.9466221,20.565777 42.9466221,23.6931766 C42.9466221,32.6855328 38.5356018,36.7465734 30.7669204,37.8868822 C30.4511351,37.0529449 30.0054224,36.4363904 29.5328279,36.0293441 C30.3088294,35.9431454 31.0902264,35.8279121 31.8604425,35.6674124 C32.7351886,36.9517738 33.2287056,38.6738161 33.2287056,40.6596274 Z M9.45536348,35.1356244 C9.04892636,34.7959474 8.69299519,34.5730515 8.42175152,34.4458108 L8.25317582,34.8051697 C8.08938079,34.7726595 7.91972479,34.7494427 7.74425243,34.7371006 C7.74425243,34.7371006 5.30249547,34.706406 7.57236256,36.2564842 C7.57236256,36.2564842 7.73289941,36.3317923 7.98834901,36.5238056 C7.9340197,36.5667997 7.87772496,36.6055119 7.82016207,36.6398544 C7.69063767,36.7171299 7.61782449,36.7415482 7.56773081,36.7515736 C7.61352518,36.7424087 7.70069689,36.7368554 7.72871293,36.7370365 C7.94029977,36.755831 8.26270742,36.8610962 8.57104404,37.0393786 C9.11675882,37.5961237 9.79270148,38.5016401 10.3486909,39.9137481 C10.3486909,39.9137481 11.8158937,44.7757758 18.7697597,43.2656005 C18.7820375,45.3512999 18.8035237,46.9243992 18.8035237,47.5168053 C18.8035237,48.1798091 18.3477086,48.9517788 17.0969029,48.7215691 C7.1625894,45.4157586 0,36.0462261 0,25.0007674 C0,11.1927929 11.1943276,0 24.9976979,0 C38.8056724,0 50,11.1927929 50,25.0007674 C50,36.0431566 42.8435495,45.4065502 32.9169097,48.7200344 C31.6492219,48.9640566 31.198011,48.185948 31.198011,47.5168053 C31.198011,46.697259 31.2287056,44.0007367 31.2287056,40.6596274 C31.2287056,38.3268363 30.4291108,36.8013137 29.5328279,36.0293441 C35.1008318,35.4108475 40.9466221,33.2975229 40.9466221,23.6931766 C40.9466221,20.9644249 39.9797416,18.7313914 38.3774824,16.9848676 C38.6337825,16.3525584 39.4916971,13.8095092 38.1273213,10.3686424 C38.1273213,10.3686424 36.0324135,9.69643022 31.2594002,12.9316431 C29.2627152,12.3760705 27.124835,12.0998189 25.0007674,12.0890758 C22.875165,12.0998189 20.73575,12.3760705 18.7421345,12.9316431 C13.9660518,9.69643022 11.8680745,10.3686424 11.8680745,10.3686424 C10.5067682,13.8095092 11.3646828,16.3525584 11.6225176,16.9848676 C10.0233279,18.7313914 9.04877375,20.9644249 9.04877375,23.6931766 C9.04877375,33.2729672 14.8853556,35.4185211 20.4364775,36.0492956 C19.7228276,36.6739311 19.0767059,37.7758679 18.8495657,39.3904049 C17.4253353,40.0303877 13.8033703,41.1338592 11.5734062,37.3139139 C11.5734062,37.3139139 10.9759917,36.2274531 9.82088819,35.4626817 C9.70001712,35.3471562 9.57807492,35.2381796 9.45536348,35.1356244 Z M8.70024871,34.6048569 C8.47692725,34.4523521 8.35163532,34.3467017 8.32629601,34.3168892 C8.37190971,34.3705552 8.42511849,34.4518471 8.47786061,34.5726436 C8.5195831,34.6682017 8.55275453,34.7719656 8.57494368,34.8826819 C8.55696036,34.8775757 8.53889867,34.872579 8.52075867,34.8676943 L8.70024871,34.6048569 Z" id="Fill-3"></path>
        </g>
    </g>
</svg>

<svg width="50" height="50" viewBox="0 0 50 50" xmlns="http://www.w3.org/2000/svg"><path d="M33.229 40.66c0 1.45-.006 2.837-.016 4.387l-.005.835-.005.701c-.004.484-.005.755-.005.934 0-.359-.479-.796-.66-.76l.379 1.963-.633-1.897C41.596 43.715 48 34.974 48 25 48 12.298 37.701 2 24.998 2 12.298 2 2 12.298 2 25a23.001 23.001 0 0 0 15.728 21.824l-.631 1.898.362-1.967c-.185-.035-.655.395-.655.762 0-.179-.002-.453-.007-.944l-.007-.714a1031.162 1031.162 0 0 1-.019-2.316c.1-.005.202-.012.305-.02l1.706 1.366c0 .143.002.28.003.415-3.85.735-6.783-.16-8.728-2.183-.903-.94-1.401-1.895-1.623-2.63l.054.155a7.913 7.913 0 0 0-.68-1.357c-.31-.484-.623-.838-.918-1.084-.134-.112-.198-.152-.167-.138L6.577 38l-.133-.09c-1.252-.856-1.934-1.658-1.83-2.895.07-.827.535-1.438 1.157-1.81a3.115 3.115 0 0 1 1.012-.375 4.79 4.79 0 0 1 .972-.092c1.696.115 3.033.793 4.134 1.821.695.649 1.165 1.298 1.412 1.748 1.156 1.981 2.798 2.128 4.729 1.26l.82 1.824-1.98-.278c.186-1.329.62-2.496 1.252-3.43a24.64 24.64 0 0 0 2.314.367c-.468.41-.907 1.026-1.218 1.858-7.75-1.155-12.17-5.236-12.17-14.214 0-3.122 1.088-5.862 3.1-8.059l1.475 1.35-1.852.756c-.85-2.085-1.038-4.884.237-8.107l.349-.88.9-.289a2.94 2.94 0 0 1 .438-.1c1.86-.292 4.571.475 8.169 2.912l-1.659-.27c2.14-.597 4.452-.905 6.806-.917 2.332.012 4.642.32 6.785.916l-1.659.271c3.596-2.437 6.305-3.204 8.164-2.912.171.027.317.062.437.1l.9.289.348.878c1.278 3.223 1.093 6.013.245 8.105l-1.854-.751 1.474-1.352c2.012 2.193 3.096 4.933 3.096 8.06 0 8.993-4.411 13.054-12.18 14.194-.316-.834-.762-1.45-1.234-1.858a24.905 24.905 0 0 0 2.327-.362c.875 1.285 1.369 3.007 1.369 4.993zM9.455 35.136a4.986 4.986 0 0 0-1.033-.69l-.169.36a4.083 4.083 0 0 0-.509-.069s-2.442-.03-.172 1.52c0 0 .16.075.416.267-.054.043-.11.082-.168.116a.808.808 0 0 1-.252.112c.046-.01.133-.015.16-.015.212.019.535.124.843.302.546.557 1.222 1.463 1.778 2.875 0 0 1.467 4.862 8.42 3.352.013 2.085.035 3.658.035 4.25 0 .664-.456 1.436-1.707 1.206C7.163 45.416 0 36.046 0 25 0 11.193 11.194 0 24.998 0 38.806 0 50 11.193 50 25c0 11.043-7.156 20.407-17.083 23.72-1.268.244-1.719-.534-1.719-1.203 0-.82.03-3.516.03-6.857 0-2.333-.799-3.859-1.695-4.63 5.568-.62 11.414-2.732 11.414-12.337 0-2.729-.967-4.962-2.57-6.708.257-.632 1.115-3.175-.25-6.616 0 0-2.095-.673-6.868 2.563-1.996-.556-4.134-.832-6.258-.843-2.126.01-4.265.287-6.259.843-4.776-3.236-6.874-2.563-6.874-2.563-1.361 3.44-.503 5.984-.245 6.616-1.6 1.746-2.574 3.98-2.574 6.708 0 9.58 5.836 11.726 11.387 12.356-.713.625-1.36 1.727-1.586 3.341-1.425.64-5.047 1.744-7.277-2.076 0 0-.597-1.087-1.752-1.851a7.363 7.363 0 0 0-.366-.327zm-.755-.531a2.727 2.727 0 0 1-.374-.288c.046.054.1.135.152.256.042.095.075.199.097.31a4.128 4.128 0 0 0-.054-.015l.18-.263z" fill="#000" fill-rule="evenodd"/></svg>
